X:400
T: Lord St.Clair's
S: "Roche Collection of Traditional Irish Music" [III/22/72]
L: 1/8
M: 4/4
R: reel
K: G
G2 BG dGBG | egfa gedB | G2 BG dGBG |1 AcBA GEDE :|2\
AcBA G2 z ||
d | g2 eg fadf | gfga bfef | gbeg fadc | Bdgd BGGd |
g2 eg fadf | gfga beef | (3bag (3agf gedc | Bdgd BG Gz |]
